Adwaita++-Dark/actions/16/playlist_display-add-files.svg

<svg fill="none" height="16" viewBox="0 0 16 16" width="16" xmlns="http://www.w3.org/2000/svg" xmlns:xlink="http://www.w3.org/1999/xlink">
  <clipPath id="clip0">
    <path d="m0 0h16v16h-16z"/>
  </clipPath>
  <g clip-path="url(#clip0)" fill="#e6ddff">
    <path d="m12 10v1.9968h-2v1.9967h2v1.9967h2v-1.9967h2v-1.9967h-2v-1.9968z"/>
    <path d="m10.2857 1-6.42856.00418v5.84659c-.22857-.08569-.45714-.13529-.71428-.13529-1.18343 0-2.14286.95916-2.14286 2.14226 0 1.18306.95943 2.14226 2.14286 2.14226s2.14285-.9592 2.14285-2.14226v-4.9986h4.28572v2.99023c-.22857-.08569-.45714-.13668-.71429-.13668-1.18343 0-2.14285.95916-2.14285 2.14226 0 1.18305.95942 2.14225 2.14285 2.14225 1.18346 0 2.14286-.9592 2.14286-2.14225v-7.85495z"/>
  </g>
</svg>

<svg xmlns="http://www.w3.org/2000/svg" fill="none" width="16" height="16" viewBox="0 0 16 16">
 <g clip-path="url(#clip0)">
  <path fill="#E6DDFF" d="M12 10V11.9968H10V13.9935H12V15.9902H14V13.9935H16V11.9968H14V10H12Z"/>
  <path fill="#E6DDFF" d="M10.2857 1L3.85714 1.00418V6.85077C3.62857 6.76508 3.4 6.71548 3.14286 6.71548C1.95943 6.71548 1 7.67464 1 8.85774C1 10.0408 1.95943 11 3.14286 11C4.32629 11 5.28571 10.0408 5.28571 8.85774V3.85914H9.57143V6.84937C9.34286 6.76368 9.11429 6.71269 8.85714 6.71269C7.67371 6.71269 6.71429 7.67185 6.71429 8.85495C6.71429 10.038 7.67371 10.9972 8.85714 10.9972C10.0406 10.9972 11 10.038 11 8.85495V1H10.2857Z"/>
 </g>
 <defs>
  <clipPath id="clip0">
   <rect fill="#fff" width="16" height="16"/>
  </clipPath>
 </defs>
</svg>
